Papirus/symbolic/actions/document-print-symbolic.svg

<?xml version='1.0' encoding='UTF-8' standalone='no'?>
<svg height="16" style="enable-background:new" version="1.1" width="16" xmlns="http://www.w3.org/2000/svg">
 <title>
  Paper Symbolic Icon Theme
 </title>
 <g transform="translate(-505.0006,59.00672)">
  <g transform="translate(505.0006,-59.00672)">
   <path d="M 2,4 C 1.5,4 1,4.5 1,5 l 0,4 c 0,0.5 0.5,1 1,1 l 1,0 0,-2 10,0 0,2 1,0 c 0.5,0 1,-0.5 1,-1 L 15,5 C 15,4.5 14.5,4 14,4 L 2,4 z" style="fill:#5c616c;fill-opacity:1;"/>
   <path d="M 4,1 4,3 12,3 12,1 4,1 z" style="fill:#5c616c;fill-opacity:1;"/>
   <path d="M 4,9.0000001 4,14 l 8,0 0,-5 z" style="fill:#5c616c;fill-opacity:1;"/>
  </g>
 </g>
</svg>

<svg xmlns="http://www.w3.org/2000/svg" width="16" height="16" version="1.1">
 <path style="fill:#5c616c" d="M 2,4 C 1.5,4 1,4.5 1,5 V 9 C 1,9.5 1.5,10 2,10 H 3 V 8 H 13 V 10 H 14 C 14.5,10 15,9.5 15,9 V 5 C 15,4.5 14.5,4 14,4 Z"/>
 <path style="fill:#5c616c" d="M 4,1 V 3 H 12 V 1 Z"/>
 <path style="fill:#5c616c" d="M 4,9 V 14 H 12 V 9 Z"/>
</svg>
